images/class_icons/brightspark.svg

<svg height="400" viewBox="0 0 400 400" width="400" xmlns="http://www.w3.org/2000/svg"><path d="m150.057 2.382c.057.246 7.508 17.799 16.556 39.007l16.452 38.559 3.064.814c11.648 3.094 23.11 2.975 34.01-.352l1.914-.584 14.284-38.704c7.857-21.286 14.29-38.812 14.297-38.945.006-.133-22.645-.242-50.335-.242-42.737 0-50.331.068-50.242.447m-27.476 13.708c0 .458 3.321 9.468 5.424 14.716 2.788 6.959 4.518 10.889 10.221 23.226 13.362 28.902 17.258 41.169 17.258 54.342 0 15.046-5.735 24.163-30.056 47.782-17.011 16.521-30.195 29.824-34.499 34.812-23.435 27.157-31.607 51.362-27.88 82.58 9.603 80.437 83.401 135.583 162.499 121.43 58.783-10.517 104.807-58.59 113.168-118.204 4.62-32.946-3.291-58.527-26.79-86.624-4.768-5.701-18.565-19.767-30.247-30.836-28.042-26.571-31.396-30.813-32.821-41.516-2.298-17.261 3.582-39.669 20.501-78.121 4.62-10.501 10.318-23.628 10.318-23.771 0-.06-3.95-.071-8.779-.024l-8.78.086-13.917 37.519c-16.265 43.851-16.056 43.096-16.049 57.965.009 20.435 4.194 27.108 35.594 56.759 45.692 43.145 56.769 61.647 56.018 93.563-1.914 81.405-82.488 138.46-160.51 113.659-24.959-7.934-48.77-25.778-63.351-47.474-19.787-29.443-26.682-65.89-17.587-92.959 5.796-17.25 17.738-32.352 49.297-62.337 34.843-33.107 42-46.276 39.337-72.387-1.344-13.171-2.762-16.987-27.632-74.389l-4.368-10.081h-8.185c-4.501 0-8.184.128-8.184.284m64.032 169.926c-32.806 1.809-63.43 12.087-69.69 23.389-3.759 6.787 2.16 22.864 12.49 33.928l3.263 3.494-4.317-2.164c-10.154-5.088-17.111-10.29-21.485-16.064-.827-1.092-1.553-2.048-1.612-2.124-.738-.945-7.133 13.053-8.625 18.882-2.017 7.882-2.671 19.767-1.524 27.708 1.998 13.823 4.632 23.064 9.569 33.572 36.241 77.129 143.568 82.336 187.76 9.109 17.134-28.393 19.994-60.431 7.58-84.915-2.718-5.359-2.805-5.451-3.772-3.957-3.956 6.109-13.872 13.708-23.915 18.326l-2.669 1.227 3.102-3.455c8.62-9.603 13.533-20.781 12.972-29.518-.767-11.952-26.647-22.986-62.998-26.859-4.663-.497-30.194-.906-36.129-.579" fill-rule="evenodd"/></svg>

<svg id="svg" xmlns="http://www.w3.org/2000/svg" xmlns:xlink="http://www.w3.org/1999/xlink" width="400" height="400" viewBox="0, 0, 400,400"><g id="svgg"><path id="path0" d="M150.057 2.382 C 150.114 2.628,157.565 20.181,166.613 41.389 L 183.065 79.948 186.129 80.762 C 197.777 83.856,209.239 83.737,220.139 80.410 L 222.053 79.826 236.337 41.122 C 244.194 19.836,250.627 2.310,250.634 2.177 C 250.640 2.044,227.989 1.935,200.299 1.935 C 157.562 1.935,149.968 2.003,150.057 2.382 M122.581 16.090 C 122.581 16.548,125.902 25.558,128.005 30.806 C 130.793 37.765,132.523 41.695,138.226 54.032 C 151.588 82.934,155.484 95.201,155.484 108.374 C 155.484 123.420,149.749 132.537,125.428 156.156 C 108.417 172.677,95.233 185.980,90.929 190.968 C 67.494 218.125,59.322 242.330,63.049 273.548 C 72.652 353.985,146.450 409.131,225.548 394.978 C 284.331 384.461,330.355 336.388,338.716 276.774 C 343.336 243.828,335.425 218.247,311.926 190.150 C 307.158 184.449,293.361 170.383,281.679 159.314 C 253.637 132.743,250.283 128.501,248.858 117.798 C 246.560 100.537,252.440 78.129,269.359 39.677 C 273.979 29.176,279.677 16.049,279.677 15.906 C 279.677 15.846,275.727 15.835,270.898 15.882 L 262.118 15.968 248.201 53.487 C 231.936 97.338,232.145 96.583,232.152 111.452 C 232.161 131.887,236.346 138.560,267.746 168.211 C 313.438 211.356,324.515 229.858,323.764 261.774 C 321.850 343.179,241.276 400.234,163.254 375.433 C 138.295 367.499,114.484 349.655,99.903 327.959 C 80.116 298.516,73.221 262.069,82.316 235.000 C 88.112 217.750,100.054 202.648,131.613 172.663 C 166.456 139.556,173.613 126.387,170.950 100.276 C 169.606 87.105,168.188 83.289,143.318 25.887 L 138.950 15.806 130.765 15.806 C 126.264 15.806,122.581 15.934,122.581 16.090 M186.613 186.016 C 153.807 187.825,123.183 198.103,116.923 209.405 C 113.164 216.192,119.083 232.269,129.413 243.333 L 132.676 246.827 128.359 244.663 C 118.205 239.575,111.248 234.373,106.874 228.599 C 106.047 227.507,105.321 226.551,105.262 226.475 C 104.524 225.530,98.129 239.528,96.637 245.357 C 94.620 253.239,93.966 265.124,95.113 273.065 C 97.111 286.888,99.745 296.129,104.682 306.637 C 140.923 383.766,248.250 388.973,292.442 315.746 C 309.576 287.353,312.436 255.315,300.022 230.831 C 297.304 225.472,297.217 225.380,296.250 226.874 C 292.294 232.983,282.378 240.582,272.335 245.200 L 269.666 246.427 272.768 242.972 C 281.388 233.369,286.301 222.191,285.740 213.454 C 284.973 201.502,259.093 190.468,222.742 186.595 C 218.079 186.098,192.548 185.689,186.613 186.016 " stroke="none" fill="#000000" fill-rule="evenodd"></path></g></svg>
